X:23
T:The Maid Behind the Bar
R:reel
O:Ireland
M:4/4
L:1/8
K:D
(DE) | "D" FAA{d}(B    A)FED | FAA{d}(B   A2)    de | "Bm" f(B{d}BA)     Bcd(e | "D" f2)  gf   "G"e(d"A"BA) |
       "D" FAA{d}(B    A)FED | FAA{d}(B   A2)    de | "Bm" f(B{d}BA) "G" Bcd(B | "D" AF)E"A"F        "D" D3 :|
(e   | "D" f)gag        fdde | fdad           fdd(f | "Em" ef)ga         bee(f | "Em" (3gfe)  be  "A" gee(g |
       "D" fg)a(f "G" b2) af | "D" def(d "A" e2) de | "Bm" f(B{d}BA)     Bcd(B | "A" AF)EF           "D" D3 :|
